X:1
T:I Expect to Hear the Savior Call My Name
T:I Expect to Hear the Savior Call My Name
T:Arthur Willis Spooner
T:Arthur Willis Spooner, 1906
T:Public Domain Courtesy of the Cyber Hymnal™
T:Public Domain Courtesy of the Cyber Hymnal™
C:Arthur Willis Spooner
Z:Public Domain
Z:Courtesy of the Cyber Hymnal™
%%score ( 1 2 ) ( 3 4 )
L:1/8
Q:1/4=93
M:4/4
K:Eb
V:1 treble 
V:2 treble 
V:3 bass 
V:4 bass 
V:1
 E>[EF] | [EG]>[FA] [GB]>[Ac] [GB]>[EG] [EF]>E | [Ge]>[Ge] [Ae]>[Ac] [GB]2 E>[EF] | %3
w: 1.~When the|trump of God shall ush- er in The|aw- ful judg- ment day, I ex-|
w: 2.~When the|skies shall roll to- ge- ther, and The|stars all dis- ap- pear, I ex-|
w: 3.~O how|sweet will be the mu- sic when, Be-|fore the blood- washed throng, I shall|
 [EG]>[FA] [GB]>[Ac] [GB]>[EG] E>[EG] | [DF]6 E>[DF] | [EG]>[FA] [GB]>[Ac] [GB]>[EG] [EF]>E | %6
w: pect to hear the Sav- ior call my|name; For I’m|trust- ing in the prom- is- es, His|
w: pect to hear the Sav- ior call my|name; He will|dis- ap- point me nev- er, and My|
w: hear the bless- èd Sav- ior call my|name; “Come, ye|bless- èd,” this His wel- come, “To the|
 [Ge]>[Ge] [Ge]>[Ac] [GB]2 E>[EF] | [EG]>[FA] [GB]>[Ac] [GB]>[EG] [EG]>[DF] | [B,E]6 z2 || %9
w: Word my con- stant stay, O I’m|sure I’ll hear the Sav- ior call my|name.|
w: soul shall know no fear, For I’m|sure I’ll hear the Sav- ior call my|name.|
w: home pre- pared for you”; I’ll be|glad to hear the Sav- ior call my|name.|
"^Refrain" [Ge]2 [Ge]2 [ce]>[ce] [Bd]>[Ac] | [GB]4 [EG]2 E>[EF] | %11
w: ||
w: Glo- ry, glo- ry hal- le-|lu- jah! I ex-|
w: ||
 [EG]>[FA] [GB]>[Ac] [GB]>[EG] E>[EG] | [DF]6 z2 | [Ge]2 [Ge]2 [ce]>[ce] [Bd]>[Ac] | %14
w: |||
w: pect to hear the Sav- ior call my|name;|Glo- ry, glo- ry hal- le-|
w: |||
 [GB]4 !fermata![Ge]2 E>[EF] | [EG]>[FA] [GB]>[Ac] [GB]>[EG] [EG]>[DF] | [B,E]6 |] %17
w: |||
w: lu- jah! I ex-|pect to hear the Sav- ior call my|name.|
w: |||
V:2
 E3/2 x/ | x15/2 E/ | x6 E3/2 x/ | x6 E3/2 x/ | x6 E3/2 x/ | x15/2 E/ | x6 E3/2 x/ | x8 | x8 || %9
 x8 | x6 E3/2 x/ | x6 E3/2 x/ | x8 | x8 | x6 E3/2 x/ | x8 | x6 |] %17
V:3
 [E,G,]>[E,A,] | [E,B,]>[E,B,] [E,E]>[E,E] [E,E]>[E,B,] [E,A,]>[E,G,] | %2
w: ~ ~|~ ~ ~ ~ ~ ~ ~ ~|
 [E,B,]>[E,B,] [A,C]>[A,E] [E,E]2 [E,G,]>[E,A,] | %3
w: ~ ~ ~ ~ ~ ~ ~|
 [E,B,]>[E,B,] [E,E]>[E,E] [E,E]>[E,B,] [E,G,]>[E,B,] | B,6 [G,B,]>[F,B,] | %5
w: ~ ~ ~ ~ ~ ~ ~ ~|~ call my|
 [E,B,]>[E,B,] [E,E]>[E,E] [E,E]>[E,B,] [E,A,]>[E,G,] | %6
w: name; ~ ~ ~ ~ ~ ~ ~|
 [E,B,]>[E,B,] [A,C]>[A,E] [E,E]2 [E,G,]>[E,A,] | %7
w: ~ ~ ~ ~ ~ ~ ~|
 [E,B,]>[E,B,] [E,E]>[E,E] [E,E]>[E,B,] [B,,B,]>[B,,B,] | [E,G,]6 z2 || %9
w: ~ ~ ~ ~ ~ ~ ~ ~|~|
 [E,E]2 [E,E]2 [A,E]>[A,E] [A,E]>[A,E] | [E,E]4 [E,B,]2 [E,G,]>[E,A,] | %11
w: ~ ~ ~ ~ ~ ~|~ ~ ~ ~|
 [E,B,]>[E,B,] [E,E]>[E,E] [E,E]>[E,B,] [E,G,]>[E,B,] | B,6 x2 | %13
w: ~ ~ ~ ~ ~ ~ ~ ~|~|
 [E,E]2 [E,E]2 [A,E]>[A,E] [A,E]>[A,E] | [E,E]4 !fermata![E,B,]2 [E,G,]>[E,A,] | %15
w: ~ ~ ~ call my name;||
 [E,B,]>[E,B,] [E,E]>[E,E] [E,E]>[E,B,] [B,,B,]>[B,,A,] | [E,G,]6 |] %17
w: ||
V:4
 x2 | x8 | x8 | x8 | B,,2 B,>B, (B,A,) x2 | x8 | x8 | x8 | x8 || x8 | x8 | x8 | %12
 B,,2 B,>B, (B,A,G,F,) | x8 | x8 | x8 | x6 |] %17

